X: 15487
T: Glenfeshie
R: reel
M: 4/4
K: Dmajor
AFEF D3A|DFA DFAD2|BAFA E3F|GABc d3z|
AFEF D3A|DFA DFA DA|BAFA E3F|GABc d2BA|
dA eA f3a|gfed BA (3FGA|dA eA f3a|bagf edBA|
dA eA f3a|gfed BA F2|d baf edef|dBABd3z||

